X:987
T:When Are You Coming Over
C:Dougie MacLean
S:LP-Dougie MacLean, Fiddle (1984)
Z:Nigel Gatherer
L:1/8
M:4/4
K:A
a2 ed cAA=c | B=GGB dBBe | gaed cAA=c | B=GGB cAAg |
gaed cAA=c | B=GGB d2 cd | effe f=gaf | =gBBc d2 ||   
cd | eaaA AccA | eaaA d2 cd | eaaA AccA | B=GBB d2
cd | eaaA AccA | eaaA d2 cd | effe f=gaf | =gBBc d2 |]
<end>
<start>
